chrome/img/svgs/profile-icon.svg

<?xml version="1.0" encoding="UTF-8"?>
<svg width="62px" height="90px" viewBox="0 0 62 90" version="1.1" xmlns="http://www.w3.org/2000/svg" xmlns:xlink="http://www.w3.org/1999/xlink">
    <!-- Generator: Sketch 42 (36781) - http://www.bohemiancoding.com/sketch -->
    <title>Group</title>
    <desc>Created with Sketch.</desc>
    <defs></defs>
    <g id="Page-1" stroke="none" stroke-width="1" fill="none" fill-rule="evenodd">
        <g id="Group" fill-rule="nonzero" fill="#cccccc">
            <path d="M40.017,38.938 C52.446,41.226 61.5959117,48.1185785 61.48,56.265 C61,90 47.829,90 31.001,90 C14.6732165,90 0.52,90 0.55709811,57.2073851 C0.557467946,56.8804704 0.520030186,56.5663158 0.52,56.264 C0.52,48.117 9.551,41.225 21.983,38.938 C24.788,41.92 27.872,43.515 31.001,43.515 C34.13,43.515 37.212,41.92 40.017,38.938 Z M31.001,41.111 C22.263,41.111 15.179,24.56 15.179,15.821 C15.179,7.084 22.263,0 31.001,0 C39.737,0 46.821,7.084 46.821,15.821 C46.821,24.559 39.737,41.111 31.001,41.111 Z" id="Combined-Shape"></path>
        </g>
    </g>
</svg>

<svg width="62" height="90" viewBox="0 0 62 90" xmlns="http://www.w3.org/2000/svg"><title>Group</title><path d="M40.017 38.938c12.429 2.288 21.579 9.18 21.463 17.327C61 90 47.829 90 31.001 90 14.673 90 .52 90 .557 57.207c0-.327-.037-.64-.037-.943 0-8.147 9.031-15.039 21.463-17.326 2.805 2.982 5.889 4.577 9.018 4.577 3.129 0 6.211-1.595 9.016-4.577zm-9.016 2.173c-8.738 0-15.822-16.551-15.822-25.29C15.179 7.084 22.263 0 31.001 0c8.736 0 15.82 7.084 15.82 15.821 0 8.738-7.084 25.29-15.82 25.29z" fill-rule="nonzero" fill="#ccc"/></svg>
